images/profile-avatar.svg

<svg width="120" height="120" viewBox="0 0 120 120" fill="none" xmlns="http://www.w3.org/2000/svg">
<path d="M60 0C63.1129 0 66.1704 0.237052 69.1554 0.694089L68.2971 6.25402C65.5919 5.83983 62.821 5.625 60 5.625C57.1791 5.625 54.4084 5.83981 51.7033 6.25396L50.845 0.694031C53.8299 0.237032 56.8873 0 60 0Z" fill="white"/>
<path d="M74.2386 1.69964L72.9038 7.16531C78.386 8.49956 83.5428 10.6648 88.2334 13.5201L91.154 8.71185C85.9782 5.56117 80.2879 3.17191 74.2386 1.69964Z" fill="white"/>
<path d="M95.4595 11.5943L92.1352 16.1324C96.6182 19.4219 100.578 23.3821 103.868 27.8651L108.406 24.5408C104.776 19.5941 100.406 15.2242 95.4595 11.5943Z" fill="white"/>
<path d="M111.288 28.8463L106.48 31.767C109.335 36.4576 111.501 41.6145 112.835 47.0966L118.3 45.7618C116.828 39.7125 114.439 34.0221 111.288 28.8463Z" fill="white"/>
<path d="M119.306 50.845L113.746 51.7033C114.16 54.4084 114.375 57.1791 114.375 60C114.375 62.821 114.16 65.5919 113.746 68.2971L119.306 69.1554C119.763 66.1703 120 63.1129 120 60C120 56.8873 119.763 53.8299 119.306 50.845Z" fill="white"/>
<path d="M106.48 88.2334C109.335 83.5428 111.5 78.3859 112.835 72.9038L118.3 74.2386C116.828 80.2879 114.439 85.9782 111.288 91.1541L106.48 88.2334Z" fill="white"/>
<path d="M103.868 92.1352L108.406 95.4595C104.776 100.406 100.406 104.776 95.4592 108.406L92.1349 103.868C96.6179 100.578 100.578 96.6182 103.868 92.1352Z" fill="white"/>
<path d="M88.233 106.48L91.1537 111.288C85.9779 114.439 80.2875 116.828 74.2382 118.3L72.9034 112.835C78.3855 111.501 83.5424 109.335 88.233 106.48Z" fill="white"/>
<path d="M68.2967 113.746L69.155 119.306C66.1701 119.763 63.1127 120 60 120C56.8871 120 53.8296 119.763 50.8445 119.306L51.7027 113.747C54.4067 114.16 57.1775 114.375 60 114.375C62.8209 114.375 65.5916 114.16 68.2967 113.746Z" fill="white"/>
<path d="M47.0958 112.836L45.7613 118.3C41.2172 117.194 36.8756 115.571 32.8024 113.496L27.1079 114.825L25.8297 109.347L33.525 107.551L35.3557 108.484C39.0447 110.363 42.9774 111.834 47.0958 112.836Z" fill="white"/>
<path d="M21.0823 110.455L22.3604 115.933L12.5995 118.21C6.10396 119.726 0.274262 113.896 1.7899 107.4L4.06746 97.6395L9.54531 98.9177L7.26776 108.679C6.6994 111.114 8.88552 113.301 11.3214 112.732L21.0823 110.455Z" fill="white"/>
<path d="M10.6531 94.1702L5.1752 92.8921L6.50393 87.1976C4.42895 83.1243 2.8055 78.7825 1.69953 74.2382L7.16393 72.9036C8.16591 77.0223 9.63675 80.9552 11.5161 84.6443L12.4486 86.475L10.6531 94.1702Z" fill="white"/>
<path d="M6.2532 68.2968L0.694021 69.155C0.237029 66.1701 0 63.1127 0 60C0 56.8871 0.237051 53.8297 0.694084 50.8446L6.25402 51.7029C5.83983 54.4081 5.625 57.179 5.625 60C5.625 62.8223 5.83959 65.5929 6.2532 68.2968Z" fill="white"/>
<path d="M7.1653 47.0962L1.69963 45.7614C3.1719 39.7121 5.56116 34.0218 8.71184 28.846L13.5201 31.7667C10.6648 36.4572 8.49955 41.6141 7.1653 47.0962Z" fill="white"/>
<path d="M16.1324 27.8648L11.5943 24.5405C15.2242 19.5938 19.594 15.2239 24.5408 11.5941L27.8651 16.1321C23.3821 19.4217 19.4219 23.3818 16.1324 27.8648Z" fill="white"/>
<path d="M31.767 13.5199L28.8463 8.71166C34.0221 5.56101 39.7124 3.17178 45.7617 1.69955L47.0966 7.16521C41.6144 8.49942 36.4576 10.6647 31.767 13.5199Z" fill="white"/>
<path d="M108.75 60C108.75 86.9239 86.9239 108.75 60 108.75C51.4601 108.75 43.433 106.554 36.4526 102.696C35.7805 102.325 34.9963 102.202 34.2485 102.377L12.5634 107.437L17.6233 85.7513C17.7978 85.0035 17.6752 84.2193 17.3037 83.5472C13.4459 76.5669 11.25 68.5399 11.25 60C11.25 33.0761 33.0761 11.25 60 11.25C86.9239 11.25 108.75 33.0761 108.75 60Z" fill="white"/>
</svg>

<svg xmlns="http://www.w3.org/2000/svg" width="120" height="120" fill="none"><path fill="#fff" d="M60 0c3.113 0 6.17.237 9.155.694l-.858 5.56A55 55 0 0 0 60 5.625c-2.82 0-5.592.215-8.297.629l-.858-5.56A60.5 60.5 0 0 1 60 0m14.239 1.7-1.335 5.465a54 54 0 0 1 15.33 6.355l2.92-4.808A59.7 59.7 0 0 0 74.239 1.7m21.221 9.894-3.325 4.538a54.7 54.7 0 0 1 11.733 11.733l4.538-3.324A60.4 60.4 0 0 0 95.46 11.594m15.828 17.252-4.808 2.921a54 54 0 0 1 6.355 15.33l5.465-1.335a59.6 59.6 0 0 0-7.012-16.916m8.018 21.999-5.56.858c.414 2.705.629 5.476.629 8.297s-.215 5.592-.629 8.297l5.56.858A60.5 60.5 0 0 0 120 60c0-3.113-.237-6.17-.694-9.155M106.48 88.233a54.1 54.1 0 0 0 6.355-15.33l5.465 1.336a59.6 59.6 0 0 1-7.012 16.915zm-2.612 3.902 4.538 3.325c-3.63 4.946-8 9.316-12.947 12.946l-3.324-4.538a54.7 54.7 0 0 0 11.733-11.733M88.233 106.48l2.92 4.808a59.6 59.6 0 0 1-16.915 7.012l-1.335-5.465a54 54 0 0 0 15.33-6.355m-19.936 7.266.858 5.56A60.5 60.5 0 0 1 60 120c-3.113 0-6.17-.237-9.156-.694l.859-5.559c2.704.413 5.474.628 8.297.628 2.82 0 5.592-.215 8.297-.629m-21.201-.91L45.76 118.3a59.6 59.6 0 0 1-12.959-4.804l-5.694 1.329-1.278-5.478 7.695-1.796 1.83.933a54 54 0 0 0 11.74 4.352m-26.012-2.381 1.278 5.478-9.76 2.277C6.104 119.726.274 113.896 1.79 107.4l2.277-9.76 5.478 1.278-2.277 9.761c-.569 2.435 1.618 4.622 4.053 4.053zM10.653 94.17l-5.478-1.278 1.329-5.694A59.6 59.6 0 0 1 1.7 74.238l5.464-1.334a54 54 0 0 0 4.352 11.74l.933 1.831zm-4.4-25.873-5.559.858A60.5 60.5 0 0 1 0 60c0-3.113.237-6.17.694-9.155l5.56.858A55 55 0 0 0 5.625 60c0 2.822.215 5.593.628 8.297m.912-21.201L1.7 45.761a59.7 59.7 0 0 1 7.012-16.915l4.808 2.92a54 54 0 0 0-6.355 15.33m8.967-19.231-4.538-3.324c3.63-4.947 8-9.317 12.947-12.947l3.324 4.538a54.7 54.7 0 0 0-11.733 11.733M31.767 13.52l-2.92-4.808A59.6 59.6 0 0 1 45.761 1.7l1.335 5.465a54 54 0 0 0-15.33 6.355"/><path fill="#fff" d="M108.75 60c0 26.924-21.826 48.75-48.75 48.75a48.5 48.5 0 0 1-23.547-6.054 3.1 3.1 0 0 0-2.205-.319l-21.685 5.06 5.06-21.686a3.1 3.1 0 0 0-.32-2.204A48.5 48.5 0 0 1 11.25 60c0-26.924 21.826-48.75 48.75-48.75S108.75 33.076 108.75 60"/></svg>
